logo/light.svg

<svg width="934" height="165" viewBox="0 0 934 165" fill="none" xmlns="http://www.w3.org/2000/svg">
<g clip-path="url(#clip0_4_55)">
<path d="M40.44 89.82C39.4635 90.7977 38.3037 91.573 37.027 92.1015C35.7503 92.6301 34.3818 92.9014 33 92.9H7.87001C5.77918 92.8947 3.77595 92.0597 2.30032 90.5785C0.824699 89.0972 -0.00265031 87.0908 6.37841e-06 85V7.87C0.00528648 5.78437 0.83614 3.78567 2.31091 2.3109C3.78568 0.836134 5.78438 0.0052801 7.87001 0L53.94 0C56.0256 0.0052801 58.0243 0.836134 59.4991 2.3109C60.9739 3.78567 61.8047 5.78437 61.81 7.87V64.1C61.8091 66.8822 60.7051 69.5505 58.74 71.52L49.58 80.67L40.44 89.82Z" fill="#3B2FC9"/>
<path d="M74 40.44C73.0241 39.4627 72.2506 38.3025 71.7238 37.0258C71.197 35.7492 70.9273 34.3811 70.93 33V7.87C70.9353 5.78437 71.7662 3.78567 73.2409 2.3109C74.7157 0.836134 76.7144 0.0052801 78.8 0L156 0C158.087 0 160.089 0.829158 161.565 2.30507C163.041 3.78098 163.87 5.78275 163.87 7.87V53.94C163.87 54.9735 163.666 55.9969 163.271 56.9517C162.875 57.9065 162.296 58.7741 161.565 59.5049C160.834 60.2357 159.967 60.8154 159.012 61.2109C158.057 61.6064 157.034 61.81 156 61.81H99.73C98.3506 61.8114 96.9844 61.541 95.7096 61.0142C94.4347 60.4875 93.2761 59.7147 92.3 58.74L83.15 49.59L74 40.44Z" fill="#3B2FC9"/>
<path d="M123.39 74.4701C125.357 72.5004 128.026 71.3926 130.81 71.3901H156C158.087 71.3928 160.089 72.2225 161.566 73.6975C163.042 75.1726 163.875 77.1728 163.88 79.2601V156.41C163.877 158.499 163.046 160.502 161.569 161.979C160.092 163.456 158.089 164.287 156 164.29H109.89C107.801 164.287 105.798 163.456 104.321 161.979C102.844 160.502 102.013 158.499 102.01 156.41V100.18C102.012 97.3963 103.12 94.7274 105.09 92.7601L114.24 83.6101L123.39 74.4701Z" fill="#3B2FC9"/>
<path d="M89.82 123.85C91.7897 125.817 92.8976 128.486 92.9 131.27V156.42C92.8947 158.511 92.0597 160.514 90.5785 161.99C89.0972 163.465 87.0908 164.293 85 164.29H7.87C5.78437 164.285 3.78567 163.454 2.3109 161.979C0.836134 160.504 0.0052801 158.506 0 156.42L0 110.35C0 108.263 0.829158 106.261 2.30507 104.785C3.78098 103.309 5.78275 102.48 7.87 102.48H64.1C65.478 102.478 66.8427 102.749 68.116 103.275C69.3893 103.802 70.5461 104.575 71.52 105.55L80.67 114.7L89.82 123.85Z" fill="#3B2FC9"/>
<path d="M423.73 123.65H423.68C422.62 124.42 421.68 125.04 421.01 125.5C420.437 125.863 419.847 126.197 419.24 126.5C418.828 126.719 418.382 126.865 417.92 126.93C417.432 126.988 416.941 127.015 416.45 127.01C415.508 127.076 414.57 126.833 413.778 126.319C412.986 125.805 412.383 125.047 412.06 124.16C411.27 122.25 410.88 118.64 410.88 113.43V89.1802C410.948 85.8337 410.724 82.4876 410.21 79.1802C409.773 76.8921 408.937 74.6988 407.74 72.7002C403.74 66.3802 395.95 63.1802 384.49 63.1802C376.09 63.1802 369.34 64.6102 364.49 67.4202C359.64 70.2302 357.09 74.1702 357.09 79.1202C357.041 80.267 357.221 81.4121 357.619 82.4887C358.017 83.5652 358.626 84.5516 359.41 85.3902C360.175 86.1778 361.095 86.7971 362.113 87.2086C363.131 87.6202 364.223 87.8148 365.32 87.7802C366.466 87.8268 367.609 87.6468 368.685 87.2504C369.761 86.8539 370.748 86.249 371.59 85.4702C372.377 84.7052 372.996 83.7845 373.408 82.767C373.819 81.7494 374.014 80.6573 373.98 79.5602C374.014 78.6186 373.856 77.68 373.516 76.8015C373.175 75.9229 372.66 75.1229 372 74.4502C371.455 73.9377 370.938 73.397 370.45 72.8302C370.316 72.6742 370.242 72.4758 370.24 72.2702C370.263 71.9422 370.359 71.6236 370.522 71.338C370.685 71.0524 370.91 70.807 371.18 70.6202C371.934 70.0043 372.777 69.5053 373.68 69.1402C374.824 68.6801 376.014 68.3448 377.23 68.1402C378.572 67.8913 379.935 67.7675 381.3 67.7702C388.06 67.7702 392.63 69.7702 394.88 73.8202C395.359 74.6676 395.758 75.5582 396.07 76.4802C396.397 77.5165 396.644 78.5762 396.81 79.6502C397 80.8802 397.15 82.3802 397.25 84.2502C397.35 86.1202 397.45 88.4302 397.54 90.9402L383.66 93.4502L378.02 94.3402C375.19 94.8502 372.86 95.3402 370.9 95.7502C369.128 96.1327 367.39 96.6543 365.7 97.3102C364.335 97.8427 363.017 98.4883 361.76 99.2402C360.592 99.9585 359.473 100.754 358.41 101.62C354.85 104.89 353.05 109.49 353.05 115.32C353.05 121.54 354.88 126.52 358.49 130.12C362.1 133.72 367.1 135.55 373.34 135.55C377.72 135.604 382.045 134.573 385.93 132.55C390.326 130.001 394.253 126.716 397.54 122.84C397.879 124.436 398.317 126.009 398.85 127.55C399.277 128.613 399.831 129.62 400.5 130.55C401.488 131.936 402.795 133.064 404.31 133.84C405.766 134.609 407.384 135.017 409.03 135.03C411.772 135.013 414.465 134.293 416.85 132.94C420.032 131.052 422.953 128.756 425.54 126.11L423.73 123.69V123.65ZM397.73 95.6502V107.14C397.73 112.24 396.94 116.14 395.37 118.83C393.855 121.434 391.651 123.569 389 125C386.337 126.497 383.335 127.286 380.28 127.29C378.501 127.37 376.725 127.084 375.062 126.449C373.399 125.814 371.883 124.845 370.61 123.6C369.379 122.275 368.425 120.718 367.803 119.02C367.181 117.322 366.905 115.517 366.99 113.71C366.99 107.24 369.99 102.82 375.85 100.56C378.5 99.5631 381.225 98.7806 384 98.2202C387.41 97.4802 392 96.6102 397.69 95.6402L397.73 95.6502Z" fill="#3B2FC9"/>
<path d="M474.88 124.7H474.82C472.808 125.499 470.755 126.19 468.67 126.77C467.248 127.156 465.783 127.357 464.31 127.37C460.64 127.37 457.85 126.26 456.02 124.08C454.19 121.9 453.25 118.57 453.25 114.19V72.3001H473.87V67.4301H453.25V39.8701H450.05L440.39 49.5301V67.4301H423.61V72.3001H440.37V119.3C440.37 124.7 441.62 128.8 444.09 131.5C446.56 134.2 450.32 135.57 455.26 135.57C458.596 135.555 461.908 135.005 465.07 133.94C469.062 132.505 472.896 130.662 476.51 128.44H476.56L474.9 124.82L474.88 124.7Z" fill="#3B2FC9"/>
<path d="M562.71 55.83C563.897 55.8671 565.079 55.661 566.183 55.2241C567.287 54.7873 568.29 54.1291 569.13 53.29C570.377 52.0563 571.228 50.4788 571.574 48.759C571.92 47.0393 571.745 45.2554 571.072 43.6355C570.399 42.0156 569.258 40.6331 567.795 39.6649C566.332 38.6967 564.614 38.1867 562.86 38.2C561.71 38.1904 560.569 38.41 559.504 38.8461C558.44 39.2822 557.473 39.9261 556.66 40.74C555.815 41.5205 555.141 42.4689 554.683 43.5244C554.225 44.5799 553.993 45.7194 554 46.87C553.98 48.0442 554.194 49.2106 554.63 50.3009C555.066 51.3913 555.716 52.3837 556.54 53.22C557.329 54.0619 558.286 54.7291 559.349 55.1786C560.411 55.6282 561.556 55.8501 562.71 55.83Z" fill="#3B2FC9"/>
<path d="M704.28 117.27C702.474 119.194 700.547 121.001 698.51 122.68C696.873 124.018 695.084 125.159 693.18 126.08C691.416 126.915 689.55 127.513 687.63 127.86C685.452 128.221 683.247 128.392 681.04 128.37C672.7 128.37 666.38 125.55 662.26 119.99C660.452 117.445 659.171 114.566 658.49 111.52C657.647 107.24 657.275 102.881 657.38 98.5199H710V98.4499C709.899 94.2903 709.454 90.1461 708.67 86.0599C708.031 83.0097 706.928 80.0756 705.4 77.3599C702.786 72.782 698.846 69.1037 694.1 66.8099C688.821 64.2646 683.02 62.9906 677.16 63.0899C672.24 63.0166 667.351 63.8751 662.75 65.6199C658.663 67.1895 654.962 69.6213 651.9 72.7499C648.822 76.0095 646.47 79.8847 645 84.1199C643.3 88.8944 642.457 93.9319 642.51 98.9999C642.46 104.123 643.303 109.216 645 114.05C646.493 118.321 648.844 122.242 651.91 125.57C654.95 128.778 658.653 131.286 662.76 132.92C667.3 134.703 672.143 135.586 677.02 135.52C679.964 135.539 682.902 135.261 685.79 134.69C688.444 134.137 691.016 133.243 693.44 132.03C695.98 130.742 698.371 129.179 700.57 127.37C703.123 125.251 705.483 122.908 707.62 120.37V120.32L704.31 117.32L704.28 117.27ZM676.69 67.7399C682.87 67.7399 687.44 69.7399 690.29 73.6799C693.14 77.6199 694.92 84.3599 695.61 93.6799H657.48C658.17 84.3199 660.01 77.5799 662.95 73.6799C665.89 69.7799 670.51 67.7399 676.69 67.7399Z" fill="#3B2FC9"/>
<path d="M332.93 127.91C331.724 127.552 330.685 126.776 330 125.72C329.281 124.428 328.854 122.994 328.75 121.52C328.521 119.11 328.421 116.69 328.45 114.27V28.7598L302.57 34.9998H302.52V39.8198H302.58C304.722 39.8682 306.854 40.1397 308.94 40.6298C310.44 40.9741 311.8 41.7657 312.84 42.8998C313.872 44.2221 314.532 45.7966 314.75 47.4598C315.136 49.9539 315.31 52.4763 315.27 54.9998V114.31C315.27 117.24 315.2 119.65 315.05 121.49C314.996 122.992 314.566 124.456 313.8 125.75C313.076 126.8 312.019 127.575 310.8 127.95C309.031 128.494 307.227 128.915 305.4 129.21L301.78 129.51V134H342V129.44L338.39 129.13C336.544 128.849 334.72 128.441 332.93 127.91Z" fill="#3B2FC9"/>
<path d="M576.2 127.91C574.995 127.549 573.957 126.773 573.27 125.72C572.555 124.427 572.129 122.994 572.02 121.52C571.791 119.11 571.691 116.69 571.72 114.27V61.27L545.84 67.45H545.79V72.27H545.85C547.992 72.3115 550.124 72.5797 552.21 73.07C553.711 73.4177 555.071 74.2128 556.11 75.35C557.135 76.6707 557.788 78.2418 558 79.9C558.387 82.3941 558.561 84.9165 558.52 87.44V114.27C558.52 117.2 558.45 119.62 558.3 121.45C558.246 122.952 557.816 124.417 557.05 125.71C556.328 126.762 555.27 127.538 554.05 127.91C552.281 128.454 550.477 128.875 548.65 129.17L545.09 129.46H545V134H585.18V129.44L581.57 129.13C579.754 128.845 577.96 128.438 576.2 127.91Z" fill="#3B2FC9"/>
<path d="M626.48 127.91C625.274 127.552 624.235 126.776 623.55 125.72C622.827 124.429 622.397 122.995 622.29 121.52C622.07 119.11 621.973 116.69 622 114.27V28.7598L596.12 34.9998V39.8198H596.18C598.322 39.8692 600.454 40.1407 602.54 40.6298C604.038 40.9712 605.396 41.7635 606.43 42.8998C607.465 44.2213 608.128 45.7957 608.35 47.4598C608.731 49.9545 608.905 52.4764 608.87 54.9998V114.31C608.87 117.24 608.79 119.66 608.64 121.49C608.594 122.993 608.164 124.46 607.39 125.75C606.668 126.801 605.61 127.577 604.39 127.95C602.621 128.492 600.816 128.913 598.99 129.21L595.43 129.5H595.37V134H635.54V129.44L631.93 129.13C630.087 128.849 628.266 128.442 626.48 127.91Z" fill="#3B2FC9"/>
<path d="M534.91 34.6199C531.91 32.4999 528.04 31.4199 523.3 31.4199C516.2 31.4199 510.47 33.7299 506.3 38.2899C502.13 42.8499 500 49.1399 500 56.9999C500 57.7899 500 61.6899 500.07 63.1399C500.14 64.5899 500.24 65.9899 500.43 67.4699H486.75V72.2999H500.24V114.3C500.24 117.3 500.17 119.67 500.02 121.49C499.967 122.995 499.537 124.464 498.77 125.76C498.048 126.812 496.99 127.588 495.77 127.96C494.004 128.503 492.203 128.924 490.38 129.22L486.82 129.51H486.76V134H528V129.43L523.35 129.13C521.523 128.834 519.719 128.413 517.95 127.87C516.73 127.498 515.672 126.722 514.95 125.67C514.179 124.375 513.749 122.906 513.7 121.4C513.55 119.59 513.48 117.17 513.48 114.21V72.2999H532V67.4299H513.41C511.889 63.2186 510.803 58.8626 510.17 54.4299C509.632 51.0781 509.703 47.6565 510.38 44.3299C511.21 40.9299 512.96 38.5699 515.59 37.3299L515.88 37.2099L516.03 37.1599L516.18 37.0999L516.28 37.0499L516.63 36.9499C517.814 36.5107 519.067 36.2871 520.33 36.2899C521.621 36.2752 522.901 36.5271 524.09 37.0299C525.2 37.5099 525.76 38.0299 525.76 38.4599C525.76 38.7299 525.46 39.1699 524.88 39.7399C524.117 40.477 523.512 41.3614 523.101 42.3395C522.69 43.3176 522.482 44.369 522.49 45.4299C522.445 46.4653 522.622 47.4984 523.01 48.4593C523.398 49.4202 523.988 50.2866 524.74 50.9999C526.285 52.4172 528.325 53.1712 530.42 53.0999C531.633 53.1257 532.836 52.8847 533.946 52.394C535.055 51.9032 536.043 51.1747 536.84 50.2599C538.564 48.2779 539.472 45.7154 539.38 43.0899C539.403 41.4169 539.006 39.7648 538.225 38.285C537.444 36.8052 536.304 35.545 534.91 34.6199Z" fill="#3B2FC9"/>
<path d="M218.6 35V39.87L224 40.47C228 40.86 230.74 41.9 232.11 43.56C232.479 43.9998 232.814 44.4679 233.11 44.96C233.395 45.5568 233.568 46.2008 233.62 46.86C233.72 47.69 233.79 48.74 233.84 49.97C233.89 51.2 233.91 52.87 233.91 54.97V114.1C233.91 116.17 233.91 117.84 233.84 119.1C233.77 120.36 233.72 121.38 233.62 122.21C233.564 122.902 233.388 123.578 233.1 124.21C232.856 124.698 232.535 125.144 232.15 125.53C230.78 127.19 228.05 128.23 224.04 128.62L218.69 129.22H218.64V134H265.79V129.13L258.9 128.53C254.98 128.24 252.25 127.2 250.79 125.44C250.408 125.066 250.108 124.617 249.91 124.12C249.667 123.474 249.492 122.803 249.39 122.12C249.229 121.094 249.132 120.058 249.1 119.02C249.05 117.84 249.03 116.21 249.03 114.02V91.16H261.92C263.182 91.1828 264.44 91.3133 265.68 91.55C266.97 91.8061 268.183 92.3609 269.22 93.17C270.274 94.0506 271.146 95.1271 271.79 96.34C272.635 97.9298 273.305 99.6062 273.79 101.34L274.99 105.48H280.87V70.32H275L274.05 74.32C273.491 76.181 272.806 78.0018 272 79.77C271.414 81.0475 270.585 82.1989 269.56 83.16C268.635 83.9917 267.529 84.5975 266.33 84.93C265.439 85.1553 264.528 85.2959 263.61 85.35H249V41.18H265.2C269.169 41.1216 273.137 41.3959 277.06 42C279.682 42.3385 282.165 43.3745 284.25 45C286.036 46.6382 287.284 48.7788 287.83 51.14C288.602 54.4197 289.028 57.7714 289.1 61.14V61.2H294.85V35H218.6Z" fill="#3B2FC9"/>
<path d="M745 136H770.508C779.457 136 784.178 130.363 784.178 123.316C784.178 117.397 780.162 112.535 775.159 111.76C779.598 110.844 783.262 106.898 783.262 100.979C783.262 94.7076 778.682 89 769.733 89H745V136ZM755.006 107.884V97.5262H767.549C770.931 97.5262 773.045 99.7811 773.045 102.67C773.045 105.7 770.931 107.884 767.549 107.884H755.006ZM755.006 127.474V116.411H767.901C771.847 116.411 773.961 118.947 773.961 121.907C773.961 125.289 771.706 127.474 767.901 127.474H755.006Z" fill="black"/>
<path d="M798.77 136H832.03V127.333H808.776V116.411H831.536V107.814H808.776V97.5967H832.03V89H798.77V136Z" fill="black"/>
<path d="M857.75 136H867.826V97.8081H881.496V89H844.009V97.8081H857.75V136Z" fill="black"/>
<path d="M923.323 136H934.244L916.135 89H903.592L885.413 136H896.405L899.365 127.896H920.363L923.323 136ZM909.864 97.6671L917.615 119.229H902.042L909.864 97.6671Z" fill="black"/>
</g>
<defs>
<clipPath id="clip0_4_55">
<rect width="934" height="165" fill="white"/>
</clipPath>
</defs>
</svg>

<svg id="Logo_Assets" data-name="Logo Assets" xmlns="http://www.w3.org/2000/svg" viewBox="0 0 709.98 164.29"><defs><style>.cls-1{fill:#3b2fc9;}.cls-2{fill:#090b2b;}</style></defs><g id="Horizontal_Logo_-_Color_-_Light_BG" data-name="Horizontal Logo - Color - Light BG"><path class="cls-1" d="M40.44,89.82A10.5,10.5,0,0,1,33,92.9H7.87A7.89,7.89,0,0,1,0,85V7.87A7.89,7.89,0,0,1,7.87,0H53.94a7.89,7.89,0,0,1,7.87,7.87V64.1a10.51,10.51,0,0,1-3.07,7.42l-9.16,9.15Z"/><path class="cls-1" d="M74,40.44A10.5,10.5,0,0,1,70.93,33V7.87A7.89,7.89,0,0,1,78.8,0H156a7.87,7.87,0,0,1,7.87,7.87V53.94A7.87,7.87,0,0,1,156,61.81H99.73a10.5,10.5,0,0,1-7.43-3.07l-9.15-9.15Z"/><path class="cls-1" d="M123.39,74.47a10.5,10.5,0,0,1,7.42-3.08H156a7.89,7.89,0,0,1,7.88,7.87v77.15a7.89,7.89,0,0,1-7.88,7.88H109.89a7.89,7.89,0,0,1-7.88-7.88V100.18a10.5,10.5,0,0,1,3.08-7.42l9.15-9.15Z"/><path class="cls-1" d="M89.82,123.85a10.5,10.5,0,0,1,3.08,7.42v25.15A7.89,7.89,0,0,1,85,164.29H7.87A7.89,7.89,0,0,1,0,156.42V110.35a7.87,7.87,0,0,1,7.87-7.87H64.1a10.47,10.47,0,0,1,7.42,3.07l9.15,9.15Z"/><path class="cls-2" d="M423.73,123.65l-.05,0c-1.06.77-2,1.39-2.67,1.85a20,20,0,0,1-1.77,1,4,4,0,0,1-1.32.43,11.43,11.43,0,0,1-1.47.08,4.35,4.35,0,0,1-4.39-2.85c-.79-1.91-1.18-5.52-1.18-10.73V89.18a57.49,57.49,0,0,0-.67-10,19.88,19.88,0,0,0-2.47-6.48c-4-6.32-11.79-9.52-23.25-9.52-8.4,0-15.15,1.43-20,4.24s-7.4,6.75-7.4,11.7a8.64,8.64,0,0,0,2.32,6.27,7.89,7.89,0,0,0,5.91,2.39,8.71,8.71,0,0,0,6.27-2.31,7.9,7.9,0,0,0,2.39-5.91A6.94,6.94,0,0,0,372,74.45a21.33,21.33,0,0,1-1.55-1.62.87.87,0,0,1-.21-.56,2.19,2.19,0,0,1,.94-1.65,9.71,9.71,0,0,1,2.5-1.48,17.13,17.13,0,0,1,3.55-1,22.09,22.09,0,0,1,4.07-.37c6.76,0,11.33,2,13.58,6.05a15.53,15.53,0,0,1,1.19,2.66,21.34,21.34,0,0,1,.74,3.17c.19,1.23.34,2.73.44,4.6s.2,4.18.29,6.69l-13.88,2.51-5.64.89c-2.83.51-5.16,1-7.12,1.41a34.47,34.47,0,0,0-5.2,1.56,26.31,26.31,0,0,0-3.94,1.93,31,31,0,0,0-3.35,2.38c-3.56,3.27-5.36,7.87-5.36,13.7,0,6.22,1.83,11.2,5.44,14.8s8.61,5.43,14.85,5.43a26.56,26.56,0,0,0,12.59-3,44.47,44.47,0,0,0,11.61-9.71,39.63,39.63,0,0,0,1.31,4.71,14.18,14.18,0,0,0,1.65,3,10.63,10.63,0,0,0,3.81,3.29,10.29,10.29,0,0,0,4.72,1.19,16.06,16.06,0,0,0,7.82-2.09,42.48,42.48,0,0,0,8.69-6.83l0,0-1.81-2.42Zm-26-28v11.49c0,5.1-.79,9-2.36,11.69A16.37,16.37,0,0,1,389,125a17.84,17.84,0,0,1-8.72,2.29,13,13,0,0,1-9.67-3.69,13.59,13.59,0,0,1-3.62-9.89c0-6.47,3-10.89,8.86-13.15A52.85,52.85,0,0,1,384,98.22C387.41,97.48,392,96.61,397.69,95.64Z"/><path class="cls-2" d="M474.88,124.7l-.06,0a60.63,60.63,0,0,1-6.15,2.07,17.23,17.23,0,0,1-4.36.6c-3.67,0-6.46-1.11-8.29-3.29s-2.77-5.51-2.77-9.89V72.3h20.62V67.43H453.25V39.87h-3.2l-9.66,9.66,0,0V67.43H423.61V72.3h16.76v47c0,5.4,1.25,9.5,3.72,12.2s6.23,4.07,11.17,4.07a31.18,31.18,0,0,0,9.81-1.63,61.63,61.63,0,0,0,11.44-5.5l.05,0-1.66-3.62Z"/><path class="cls-2" d="M562.71,55.83a8.7,8.7,0,0,0,6.42-2.54,8.82,8.82,0,0,0-6.27-15.09,8.66,8.66,0,0,0-6.2,2.54A8.27,8.27,0,0,0,554,46.87a8.83,8.83,0,0,0,2.54,6.35A8.26,8.26,0,0,0,562.71,55.83Z"/><path class="cls-2" d="M704.28,117.27l0,0a62,62,0,0,1-5.77,5.41,27,27,0,0,1-5.33,3.4,22.2,22.2,0,0,1-5.55,1.78,38,38,0,0,1-6.59.51c-8.34,0-14.66-2.82-18.78-8.38a23.46,23.46,0,0,1-3.77-8.47,59.8,59.8,0,0,1-1.11-13H710v-.07a75.49,75.49,0,0,0-1.33-12.39,30.48,30.48,0,0,0-3.27-8.7,26.08,26.08,0,0,0-11.3-10.55,37.54,37.54,0,0,0-16.94-3.72,39,39,0,0,0-14.41,2.53,30.47,30.47,0,0,0-10.85,7.13A31.71,31.71,0,0,0,645,84.12,43,43,0,0,0,642.51,99,44.13,44.13,0,0,0,645,114.05a33.14,33.14,0,0,0,6.91,11.52,30.45,30.45,0,0,0,10.85,7.35,37.61,37.61,0,0,0,14.26,2.6,43.69,43.69,0,0,0,8.77-.83,31.4,31.4,0,0,0,7.65-2.66,39,39,0,0,0,7.13-4.66,55.82,55.82,0,0,0,7.05-7l0-.05-3.31-3ZM676.69,67.74c6.18,0,10.75,2,13.6,5.94s4.63,10.68,5.32,20H657.48c.69-9.36,2.53-16.1,5.47-20S670.51,67.74,676.69,67.74Z"/><path class="cls-2" d="M332.93,127.91a5.28,5.28,0,0,1-2.93-2.19,10.09,10.09,0,0,1-1.25-4.2,67.9,67.9,0,0,1-.3-7.25V28.76L302.57,35h-.05v4.82h.06a30.86,30.86,0,0,1,6.36.81,7.6,7.6,0,0,1,3.9,2.27,9.4,9.4,0,0,1,1.91,4.56,44.63,44.63,0,0,1,.52,7.54v59.31c0,2.93-.07,5.34-.22,7.18a9,9,0,0,1-1.25,4.26,5.67,5.67,0,0,1-3,2.2,40,40,0,0,1-5.4,1.26l-3.62.3V134H342v-4.56l-3.61-.31A40.6,40.6,0,0,1,332.93,127.91Z"/><path class="cls-2" d="M576.2,127.91a5.32,5.32,0,0,1-2.93-2.19,10.24,10.24,0,0,1-1.25-4.2,67.9,67.9,0,0,1-.3-7.25v-53l-25.88,6.18-.05,0v4.82h.06a30.36,30.36,0,0,1,6.36.8,7.61,7.61,0,0,1,3.9,2.28A9.36,9.36,0,0,1,558,79.9a44.55,44.55,0,0,1,.52,7.54v26.83c0,2.93-.07,5.35-.22,7.18a9,9,0,0,1-1.25,4.26,5.63,5.63,0,0,1-3,2.2,40,40,0,0,1-5.4,1.26l-3.56.29H545V134h40.18v-4.56l-3.61-.31A40.6,40.6,0,0,1,576.2,127.91Z"/><path class="cls-2" d="M626.48,127.91a5.28,5.28,0,0,1-2.93-2.19,10.08,10.08,0,0,1-1.26-4.2,71.19,71.19,0,0,1-.29-7.25V28.76L596.12,35h0v4.82h.06a31,31,0,0,1,6.36.81,7.52,7.52,0,0,1,3.89,2.27,9.41,9.41,0,0,1,1.92,4.56,45.79,45.79,0,0,1,.52,7.54v59.31c0,2.93-.08,5.35-.23,7.18a8.81,8.81,0,0,1-1.25,4.26,5.64,5.64,0,0,1-3,2.2,40.78,40.78,0,0,1-5.4,1.26l-3.56.29h-.06V134h40.17v-4.56l-3.61-.31A40.4,40.4,0,0,1,626.48,127.91Z"/><path class="cls-2" d="M534.91,34.62c-3-2.12-6.87-3.2-11.61-3.2-7.1,0-12.83,2.31-17,6.87S500,49.14,500,57c0,.79,0,4.69.07,6.14s.17,2.85.36,4.33H486.75V72.3h13.49v42c0,3-.07,5.37-.22,7.19a9,9,0,0,1-1.25,4.27,5.63,5.63,0,0,1-3,2.2,40.19,40.19,0,0,1-5.39,1.26l-3.56.29h-.06V134H528v-4.57l-4.65-.3a40.4,40.4,0,0,1-5.4-1.26,5.63,5.63,0,0,1-3-2.2,8.92,8.92,0,0,1-1.25-4.27c-.15-1.81-.22-4.23-.22-7.19V72.3H532V67.43H513.41a65.54,65.54,0,0,1-3.24-13,28.2,28.2,0,0,1,.21-10.1c.83-3.4,2.58-5.76,5.21-7l.29-.12.15-.05.15-.06.1-.05.35-.1a10.57,10.57,0,0,1,3.7-.66,9.38,9.38,0,0,1,3.76.74c1.11.48,1.67,1,1.67,1.43,0,.27-.3.71-.88,1.28a7.83,7.83,0,0,0-2.39,5.69A7.24,7.24,0,0,0,524.74,51a8,8,0,0,0,5.68,2.1,8.28,8.28,0,0,0,6.42-2.84,10.37,10.37,0,0,0,2.54-7.17A10,10,0,0,0,534.91,34.62Z"/><path class="cls-2" d="M218.6,35v4.87l5.4.6c4,.39,6.74,1.43,8.11,3.09a11,11,0,0,1,1,1.4,5.41,5.41,0,0,1,.51,1.9c.1.83.17,1.88.22,3.11s.07,2.9.07,5V114.1c0,2.07,0,3.74-.07,5s-.12,2.28-.22,3.11a6,6,0,0,1-.52,2,5.09,5.09,0,0,1-.95,1.32c-1.37,1.66-4.1,2.7-8.11,3.09l-5.35.6h-.05V134h47.15v-4.87l-6.89-.6c-3.92-.29-6.65-1.33-8.11-3.09a3.82,3.82,0,0,1-.88-1.32,9.81,9.81,0,0,1-.52-2,25.08,25.08,0,0,1-.29-3.1c-.05-1.18-.07-2.81-.07-5V91.16h12.89a22.19,22.19,0,0,1,3.76.39,8.42,8.42,0,0,1,3.54,1.62,10.62,10.62,0,0,1,2.57,3.17,25,25,0,0,1,2,5l1.2,4.14,0,0h5.88V70.32H275l-.95,4A42.93,42.93,0,0,1,272,79.77a10.84,10.84,0,0,1-2.44,3.39,8.05,8.05,0,0,1-3.23,1.77,14.61,14.61,0,0,1-2.72.42H249V41.18H265.2a71.07,71.07,0,0,1,11.86.82,14.77,14.77,0,0,1,7.19,3,12,12,0,0,1,3.58,6.14,48.14,48.14,0,0,1,1.27,10v.06h5.75V35Z"/></g></svg>
